templates/franklin_logo.svg

<?xml version="1.0" encoding="UTF-8" standalone="no"?>
<svg width="479px" height="106px" viewBox="0 0 479 106" version="1.1" xmlns="http://www.w3.org/2000/svg" xmlns:xlink="http://www.w3.org/1999/xlink" xmlns:sketch="http://www.bohemiancoding.com/sketch/ns">
    <!-- Generator: Sketch 3.5.2 (25235) - http://www.bohemiancoding.com/sketch -->
    <title>FranklinCountyLogo-02 Copy</title>
    <desc>Created with Sketch.</desc>
    <defs></defs>
    <g id="Page-1" stroke="none" stroke-width="1" fill="none" fill-rule="evenodd" sketch:type="MSPage">
        <g id="Desktop-Home-1" sketch:type="MSArtboardGroup" transform="translate(-84.000000, -34.000000)" fill="#FFFFFF">
            <g id="FranklinCountyLogo-02-Copy" sketch:type="MSLayerGroup" transform="translate(84.000000, 34.000000)">
                <g id="Layer_1" sketch:type="MSShapeGroup">
                    <path d="M67.9813745,38.5163793 L67.9813745,38.1965517 L67.9813745,18.7327586 C67.9813745,12.6560345 63.0439243,7.67586207 56.9178287,7.67586207 C55.3177291,7.67586207 53.8090637,7.99568966 52.4375498,8.63534483 C51.2946215,3.74655172 46.9057769,0.0913793103 41.6483068,0.0913793103 C36.3908367,0.0913793103 32.001992,3.74655172 30.8590637,8.63534483 C29.4875498,8.04137931 27.9788845,7.67586207 26.3787849,7.67586207 C21.1213147,7.67586207 16.7324701,11.3310345 15.5895418,16.2198276 C14.2180279,15.6258621 12.7093625,15.2603448 11.1092629,15.2603448 C5.02888446,15.2603448 0.0457171315,20.1948276 0.0457171315,26.3172414 L0.0457171315,49.162069 L0.0914342629,52.5887931 L0.0914342629,64.4224138 C0.0914342629,87.312931 18.6983068,105.908621 41.6025896,105.908621 C64.5068725,105.908621 83.2051793,87.312931 83.2051793,64.4224138 L83.2051793,56.7922414 C83.2051793,47.7 76.6219124,40.1155172 67.9813745,38.5163793 L67.9813745,38.5163793 Z M76.3476096,64.4224138 C76.3476096,83.5206897 60.8037849,99.0551724 41.6940239,99.0551724 C22.5842629,99.0551724 7.04043825,83.5206897 7.04043825,64.4224138 L7.04043825,49.2077586 L6.99472112,45.7810345 L6.99472112,26.362931 C6.99472112,24.0327586 8.86912351,22.1594828 11.2006972,22.1594828 C13.5322709,22.1594828 15.4066733,24.0327586 15.4066733,26.362931 L15.4066733,54.187931 L22.264243,54.187931 L22.264243,26.362931 L22.264243,18.7327586 C22.264243,16.4025862 24.1386454,14.5293103 26.4702191,14.5293103 C28.8017928,14.5293103 30.6761952,16.4025862 30.6761952,18.7327586 L30.6761952,48.1568966 L37.5337649,48.1568966 L37.5337649,18.7327586 L37.5337649,11.1482759 C37.5337649,8.81810345 39.4081673,6.94482759 41.739741,6.94482759 C44.0713147,6.94482759 45.9457171,8.81810345 45.9457171,11.1482759 L45.9457171,18.7327586 L45.9457171,44.0905172 L52.8032869,44.0905172 L52.8032869,18.7327586 C52.8032869,16.4025862 54.6776892,14.5293103 57.0092629,14.5293103 C59.3408367,14.5293103 61.215239,16.4025862 61.215239,18.7327586 L61.215239,38.1508621 L61.215239,45.0043103 L61.215239,58.4827586 C52.4375498,61.3612069 46.0828685,69.6310345 46.0828685,79.3172414 L52.9404382,79.3172414 C52.9404382,71.0017241 59.7065737,64.2396552 68.0270916,64.2396552 L68.0270916,64.2396552 L68.0270916,45.5068966 C72.8731076,46.9689655 76.3933267,51.4922414 76.3933267,56.7922414 L76.3933267,64.4224138 L76.3476096,64.4224138 Z" id="Shape"></path>
                </g>
                <text id="Family-&amp;-Community-S" sketch:type="MSTextLayer" font-family="Roboto Slab" font-size="25.5" font-weight="bold">
                    <tspan x="108.665026" y="84.9086207">Family &amp; Community Services</tspan>
                </text>
                <g id="Brandon" transform="translate(108.860497, 25.000000)" sketch:type="MSShapeGroup">
                    <path d="M0.616050085,1.64778325 C0.616050085,1.22216749 0.947125783,0.891133005 1.37279454,0.891133005 L18.0211725,0.891133005 C18.4468412,0.891133005 18.7779169,1.26945813 18.7779169,1.64778325 L18.7779169,6.04581281 C18.7779169,6.47142857 18.4468412,6.80246305 18.0211725,6.80246305 L6.90648833,6.80246305 L6.90648833,12.5719212 L16.0820148,12.5719212 C16.460387,12.5719212 16.8387592,12.9502463 16.8387592,13.3285714 L16.8387592,17.726601 C16.8387592,18.1522167 16.460387,18.4832512 16.0820148,18.4832512 L6.90648833,18.4832512 L6.90648833,28.2724138 C6.90648833,28.6980296 6.52811611,29.029064 6.14974388,29.029064 L1.42009106,29.029064 C0.994422311,29.029064 0.663346614,28.6507389 0.663346614,28.2724138 L0.663346614,1.64778325 L0.616050085,1.64778325 Z" id="Shape"></path>
                    <path d="M23.2710871,1.64778325 C23.2710871,1.22216749 23.6021628,0.891133005 24.0278315,0.891133005 L36.0411497,0.891133005 C40.8653956,0.891133005 44.7910074,4.76896552 44.7910074,9.59261084 C44.7910074,13.2812808 42.3315879,16.2605911 38.8316448,17.6793103 L44.3180421,27.8940887 C44.6018213,28.4142857 44.3180421,29.0763547 43.6558907,29.0763547 L38.311383,29.0763547 C37.9803073,29.0763547 37.7438247,28.8871921 37.6492316,28.6980296 L32.3520205,18.0103448 L29.5615253,18.0103448 L29.5615253,28.2724138 C29.5615253,28.6980296 29.1831531,29.029064 28.8047809,29.029064 L24.0278315,29.029064 C23.6021628,29.029064 23.2710871,28.6507389 23.2710871,28.2724138 L23.2710871,1.64778325 L23.2710871,1.64778325 Z M35.5208879,12.9029557 C37.1762664,12.9029557 38.5951622,11.3896552 38.5951622,9.68719212 C38.5951622,7.98472906 37.1762664,6.61330049 35.5208879,6.61330049 L29.5615253,6.61330049 L29.5615253,12.9029557 L35.5208879,12.9029557 L35.5208879,12.9029557 Z" id="Shape"></path>
                    <path d="M46.5882755,27.98867 L59.169152,0.938423645 C59.3110415,0.701970443 59.5948207,0.512807882 59.8313034,0.512807882 L60.2569721,0.512807882 C60.5407513,0.512807882 60.8245304,0.701970443 60.9191235,0.938423645 L73.5,27.98867 C73.7364826,28.508867 73.4054069,29.029064 72.8378486,29.029064 L68.391975,29.029064 C67.682527,29.029064 67.3514513,28.7926108 66.9730791,28.0359606 L65.5068867,24.8674877 L54.5813887,24.8674877 L53.1151964,28.0832512 C52.9260102,28.5561576 52.453045,29.029064 51.649004,29.029064 L47.2504269,29.029064 C46.635572,29.029064 46.3517928,28.508867 46.5882755,27.98867 L46.5882755,27.98867 Z M63.0947638,19.3817734 L60.0204895,12.7610837 L60.0204895,12.7610837 L56.9935117,19.3817734 L63.0947638,19.3817734 L63.0947638,19.3817734 Z" id="Shape"></path>
                    <path d="M76.7634604,1.22216749 C76.7634604,0.796551724 77.1418327,0.512807882 77.5202049,0.512807882 L78.513432,0.512807882 L94.546955,15.9295567 L94.5942516,15.9295567 L94.5942516,1.64778325 C94.5942516,1.22216749 94.9253273,0.891133005 95.350996,0.891133005 L100.222538,0.891133005 C100.648207,0.891133005 100.979283,1.26945813 100.979283,1.64778325 L100.979283,28.6980296 C100.979283,29.1236453 100.600911,29.4073892 100.222538,29.4073892 L99.560387,29.4073892 C99.4184974,29.4073892 99.1347183,29.2655172 99.0401252,29.2182266 L83.1484917,13.2812808 L83.1011952,13.2812808 L83.1011952,28.2724138 C83.1011952,28.6980296 82.7701195,29.029064 82.3444508,29.029064 L77.5675014,29.029064 C77.1418327,29.029064 76.810757,28.6507389 76.810757,28.2724138 L76.7634604,1.22216749 L76.7634604,1.22216749 Z" id="Shape"></path>
                    <path d="M107.884576,1.83694581 C107.884576,1.31674877 108.310245,0.891133005 108.830507,0.891133005 L113.512863,0.891133005 C114.033125,0.891133005 114.458793,1.31674877 114.458793,1.83694581 L114.458793,12.4300493 L123.397837,1.31674877 C123.539727,1.12758621 123.918099,0.891133005 124.154582,0.891133005 L129.21531,0.891133005 C129.972055,0.891133005 130.397723,1.78965517 129.924758,2.35714286 L120.512749,14.1325123 L130.776096,27.4684729 C131.201764,28.0832512 130.776096,28.9344828 130.019351,28.9344828 L124.485657,28.9344828 C124.201878,28.9344828 123.823506,28.7926108 123.776209,28.6507389 L114.50609,16.0241379 L114.50609,27.98867 C114.50609,28.508867 114.080421,28.9344828 113.560159,28.9344828 L108.877803,28.9344828 C108.310245,28.9344828 107.931873,28.508867 107.931873,27.98867 L107.931873,1.83694581 L107.884576,1.83694581 Z" id="Shape"></path>
                    <path d="M134.93819,1.64778325 C134.93819,1.22216749 135.269266,0.891133005 135.694935,0.891133005 L140.471884,0.891133005 C140.897553,0.891133005 141.228628,1.26945813 141.228628,1.64778325 L141.228628,23.117734 L150.829824,23.117734 C151.255492,23.117734 151.586568,23.4960591 151.586568,23.8743842 L151.586568,28.2724138 C151.586568,28.6980296 151.255492,29.029064 150.829824,29.029064 L135.694935,29.029064 C135.269266,29.029064 134.93819,28.6507389 134.93819,28.2724138 L134.93819,1.64778325 L134.93819,1.64778325 Z" id="Shape"></path>
                    <path d="M155.464883,1.64778325 C155.464883,1.22216749 155.843256,0.891133005 156.221628,0.891133005 L161.045874,0.891133005 C161.424246,0.891133005 161.802618,1.26945813 161.802618,1.64778325 L161.802618,28.2724138 C161.802618,28.6980296 161.424246,29.029064 161.045874,29.029064 L156.221628,29.029064 C155.795959,29.029064 155.464883,28.6507389 155.464883,28.2724138 L155.464883,1.64778325 L155.464883,1.64778325 Z" id="Shape"></path>
                    <path d="M168.707911,1.22216749 C168.707911,0.796551724 169.086283,0.512807882 169.464656,0.512807882 L170.457883,0.512807882 L186.491406,15.9295567 L186.538702,15.9295567 L186.538702,1.64778325 C186.538702,1.22216749 186.869778,0.891133005 187.295447,0.891133005 L192.119693,0.891133005 C192.545361,0.891133005 192.876437,1.26945813 192.876437,1.64778325 L192.876437,28.6980296 C192.876437,29.1236453 192.498065,29.4073892 192.119693,29.4073892 L191.504838,29.4073892 C191.362948,29.4073892 191.079169,29.2655172 190.984576,29.2182266 L175.092943,13.2812808 L175.045646,13.2812808 L175.045646,28.2724138 C175.045646,28.6980296 174.71457,29.029064 174.288902,29.029064 L169.511952,29.029064 C169.086283,29.029064 168.755208,28.6507389 168.755208,28.2724138 L168.707911,1.22216749 L168.707911,1.22216749 Z" id="Shape"></path>
                    <path d="M221.159761,0.465517241 C225.179966,0.465517241 228.159647,1.69507389 230.902846,4.20147783 C231.281218,4.53251232 231.281218,5.00541872 230.950142,5.3364532 L227.828571,8.59950739 C227.544792,8.88325123 227.119124,8.88325123 226.835344,8.59950739 C225.369152,7.27536946 223.382698,6.56600985 221.396244,6.56600985 C216.855777,6.56600985 213.497723,10.3492611 213.497723,14.8418719 C213.497723,19.2871921 216.855777,23.0231527 221.396244,23.0231527 C223.288105,23.0231527 225.321855,22.3610837 226.788048,21.0842365 C227.071827,20.8477833 227.592089,20.8477833 227.828571,21.1315271 L230.950142,24.4891626 C231.233921,24.7729064 231.186625,25.2931034 230.902846,25.5768473 C228.159647,28.2251232 224.707001,29.4546798 221.112464,29.4546798 C213.072055,29.4546798 206.59243,23.0704433 206.59243,15.0310345 C206.639727,6.94433498 213.119351,0.465517241 221.159761,0.465517241 L221.159761,0.465517241 Z" id="Shape"></path>
                    <path d="M248.024189,0.465517241 C256.064599,0.465517241 262.496927,6.94433498 262.496927,14.9837438 C262.496927,23.0231527 256.064599,29.4073892 248.024189,29.4073892 C239.983779,29.4073892 233.598748,23.0231527 233.598748,14.9837438 C233.598748,6.94433498 239.983779,0.465517241 248.024189,0.465517241 L248.024189,0.465517241 Z M248.024189,22.9758621 C252.470063,22.9758621 256.064599,19.3344828 256.064599,14.9837438 C256.064599,10.5384236 252.422766,6.89704433 248.024189,6.89704433 C243.625612,6.89704433 240.031076,10.5384236 240.031076,14.9837438 C240.031076,19.3817734 243.625612,22.9758621 248.024189,22.9758621 L248.024189,22.9758621 Z" id="Shape"></path>
                    <path d="M266.9428,1.64778325 C266.9428,1.22216749 267.321172,0.891133005 267.699545,0.891133005 L272.66568,0.891133005 C273.091349,0.891133005 273.422425,1.26945813 273.422425,1.64778325 L273.422425,17.9157635 C273.422425,20.753202 275.503472,22.9758621 278.38856,22.9758621 C281.273648,22.9758621 283.401992,20.7059113 283.401992,17.9157635 L283.401992,1.64778325 C283.401992,1.22216749 283.733068,0.891133005 284.158736,0.891133005 L289.124872,0.891133005 C289.550541,0.891133005 289.881616,1.26945813 289.881616,1.64778325 L289.881616,18.246798 C289.881616,24.3472906 284.726295,29.4073892 278.38856,29.4073892 C272.098122,29.4073892 266.990097,24.3472906 266.990097,18.246798 L266.990097,1.64778325 L266.9428,1.64778325 Z" id="Shape"></path>
                    <path d="M296.313944,1.22216749 C296.313944,0.796551724 296.692316,0.512807882 297.070689,0.512807882 L298.063916,0.512807882 L314.097439,15.9295567 L314.144735,15.9295567 L314.144735,1.64778325 C314.144735,1.22216749 314.475811,0.891133005 314.90148,0.891133005 L319.725726,0.891133005 C320.151394,0.891133005 320.48247,1.26945813 320.48247,1.64778325 L320.48247,28.6980296 C320.48247,29.1236453 320.104098,29.4073892 319.725726,29.4073892 L319.063574,29.4073892 C318.921685,29.4073892 318.637906,29.2655172 318.543312,29.2182266 L302.698976,13.2812808 L302.651679,13.2812808 L302.651679,28.2724138 C302.651679,28.6980296 302.320603,29.029064 301.894935,29.029064 L297.117985,29.029064 C296.692316,29.029064 296.361241,28.6507389 296.361241,28.2724138 L296.313944,1.22216749 L296.313944,1.22216749 Z" id="Shape"></path>
                    <path d="M331.029596,6.80246305 L325.259419,6.80246305 C324.833751,6.80246305 324.502675,6.42413793 324.502675,6.04581281 L324.502675,1.64778325 C324.502675,1.22216749 324.833751,0.891133005 325.259419,0.891133005 L343.090211,0.891133005 C343.515879,0.891133005 343.846955,1.26945813 343.846955,1.64778325 L343.846955,6.04581281 C343.846955,6.47142857 343.515879,6.80246305 343.090211,6.80246305 L337.320034,6.80246305 L337.320034,28.2724138 C337.320034,28.6980296 336.941662,29.029064 336.56329,29.029064 L331.739044,29.029064 C331.360672,29.029064 330.982299,28.6507389 330.982299,28.2724138 L330.982299,6.80246305 L331.029596,6.80246305 Z" id="Shape"></path>
                    <path d="M354.488674,15.4566502 L345.596927,2.02610837 C345.265851,1.50591133 345.596927,0.843842365 346.259078,0.843842365 L351.508993,0.843842365 C351.840068,0.843842365 352.029254,1.03300493 352.171144,1.22216749 L357.704838,9.49802956 L363.285828,1.26945813 C363.427718,1.12758621 363.569607,0.891133005 363.94798,0.891133005 L369.197894,0.891133005 C369.860046,0.891133005 370.143825,1.55320197 369.860046,2.07339901 L360.873705,15.4566502 L360.873705,28.2724138 C360.873705,28.6980296 360.495333,29.029064 360.116961,29.029064 L355.340011,29.029064 C354.914343,29.029064 354.583267,28.6507389 354.583267,28.2724138 L354.583267,15.4566502 L354.488674,15.4566502 Z" id="Shape"></path>
                </g>
            </g>
        </g>
    </g>
</svg>

<?xml version="1.0" encoding="utf-8"?>
<!-- Generator: Adobe Illustrator 15.1.0, SVG Export Plug-In . SVG Version: 6.00 Build 0)  -->
<!DOCTYPE svg PUBLIC "-//W3C//DTD SVG 1.1//EN" "http://www.w3.org/Graphics/SVG/1.1/DTD/svg11.dtd">
<svg version="1.1" id="Layer_1" xmlns:sketch="http://www.bohemiancoding.com/sketch/ns"
	 xmlns="http://www.w3.org/2000/svg" xmlns:xlink="http://www.w3.org/1999/xlink" x="0px" y="0px" width="479px" height="106px"
	 viewBox="0 0 479 106" enable-background="new 0 0 479 106" xml:space="preserve">
<title>FranklinCountyLogo-02 Copy</title>
<desc>Created with Sketch.</desc>
<g id="Page-1" sketch:type="MSPage">
	<g id="Desktop-Home-1" transform="translate(-84.000000, -34.000000)" sketch:type="MSArtboardGroup">
		<g id="FranklinCountyLogo-02-Copy" transform="translate(84.000000, 34.000000)" sketch:type="MSLayerGroup">
			<g id="Layer_1_1_" sketch:type="MSShapeGroup">
				<path id="Shape" fill="#FFFFFF" d="M77.412,42.486v-0.232V28.124c0-4.411-3.584-8.027-8.031-8.027
					c-1.162,0-2.257,0.232-3.252,0.697c-0.83-3.549-4.016-6.203-7.833-6.203c-3.817,0-7.003,2.653-7.833,6.203
					c-0.996-0.431-2.091-0.697-3.252-0.697c-3.817,0-7.002,2.653-7.833,6.203c-0.996-0.431-2.09-0.697-3.252-0.697
					c-4.414,0-8.032,3.582-8.032,8.027v16.584l0.033,2.488v8.589c0,16.618,13.507,30.117,30.135,30.117
					c16.627,0,30.201-13.499,30.201-30.117v-5.538C88.463,49.152,83.684,43.646,77.412,42.486L77.412,42.486z M83.485,61.291
					c0,13.865-11.284,25.142-25.156,25.142S33.172,75.156,33.172,61.291V50.247l-0.033-2.487V33.663
					c0-1.692,1.361-3.052,3.054-3.052c1.692,0,3.053,1.36,3.053,3.052v20.199h4.978V33.663v-5.539c0-1.692,1.361-3.052,3.053-3.052
					c1.693,0,3.053,1.36,3.053,3.052v21.36h4.979v-21.36v-5.506c0-1.691,1.36-3.052,3.053-3.052c1.692,0,3.053,1.36,3.053,3.052
					v5.506v18.408h4.978V28.124c0-1.692,1.361-3.052,3.053-3.052c1.693,0,3.054,1.36,3.054,3.052V42.22v4.975v9.784
					c-6.372,2.09-10.985,8.094-10.985,15.125h4.978c0-6.036,4.912-10.944,10.952-10.944l0,0v-13.6
					c3.518,1.061,6.074,4.345,6.074,8.192v5.538H83.485z"/>
			</g>
			<text transform="matrix(1 0 0 1 108.665 84.9082)" fill="#FFFFFF" font-family="'RobotoSlab-Bold'" font-size="25.5">Family &amp; Community Services</text>
			<g id="Brandon" transform="translate(108.860497, 25.000000)" sketch:type="MSShapeGroup">
				<path id="Shape_1_" fill="#FFFFFF" d="M0.616,1.648c0-0.426,0.331-0.757,0.757-0.757h16.648c0.425,0,0.757,0.378,0.757,0.757
					v4.398c0,0.426-0.332,0.757-0.757,0.757H6.907v5.769h9.175c0.378,0,0.757,0.378,0.757,0.757v4.398
					c0,0.426-0.378,0.757-0.757,0.757H6.907v9.789c0,0.426-0.378,0.757-0.757,0.757H1.42c-0.426,0-0.757-0.379-0.757-0.757V1.648
					H0.616z"/>
				<path id="Shape_2_" fill="#FFFFFF" d="M23.271,1.648c0-0.426,0.331-0.757,0.756-0.757h12.014c4.824,0,8.75,3.878,8.75,8.702
					c0,3.688-2.459,6.668-5.959,8.086l5.486,10.215c0.284,0.52,0,1.182-0.662,1.182h-5.345c-0.331,0-0.567-0.189-0.662-0.378
					L32.352,18.01h-2.791v10.262c0,0.426-0.378,0.757-0.757,0.757h-4.777c-0.425,0-0.756-0.379-0.756-0.757V1.648L23.271,1.648z
					 M35.521,12.903c1.655,0,3.074-1.513,3.074-3.216c0-1.702-1.419-3.074-3.074-3.074h-5.959v6.29H35.521L35.521,12.903z"/>
				<path id="Shape_3_" fill="#FFFFFF" d="M46.588,27.989l12.581-27.05c0.142-0.236,0.425-0.426,0.662-0.426h0.426
					c0.284,0,0.567,0.189,0.662,0.426L73.5,27.989c0.237,0.52-0.094,1.041-0.662,1.041h-4.446c-0.709,0-1.041-0.236-1.419-0.993
					l-1.466-3.169H54.581l-1.466,3.216c-0.189,0.474-0.662,0.946-1.466,0.946H47.25C46.636,29.029,46.352,28.509,46.588,27.989
					L46.588,27.989z M63.095,19.382l-3.074-6.621l0,0l-3.027,6.621H63.095L63.095,19.382z"/>
				<path id="Shape_4_" fill="#FFFFFF" d="M76.764,1.222c0-0.426,0.378-0.709,0.757-0.709h0.993L94.547,15.93h0.047V1.648
					c0-0.426,0.331-0.757,0.757-0.757h4.872c0.426,0,0.757,0.378,0.757,0.757v27.05c0,0.425-0.378,0.709-0.757,0.709H99.56
					c-0.142,0-0.426-0.142-0.521-0.188L83.148,13.281h-0.047v14.991c0,0.426-0.331,0.757-0.757,0.757h-4.777
					c-0.425,0-0.756-0.379-0.756-0.757L76.764,1.222L76.764,1.222z"/>
				<path id="Shape_5_" fill="#FFFFFF" d="M107.885,1.837c0-0.52,0.426-0.946,0.946-0.946h4.683c0.52,0,0.946,0.426,0.946,0.946
					V12.43l8.939-11.113c0.142-0.189,0.521-0.426,0.757-0.426h5.061c0.757,0,1.183,0.898,0.709,1.466l-9.412,11.775l10.264,13.336
					c0.426,0.614,0,1.466-0.757,1.466h-5.534c-0.284,0-0.662-0.142-0.709-0.284l-9.27-12.626v11.964c0,0.52-0.426,0.946-0.946,0.946
					h-4.683c-0.567,0-0.946-0.426-0.946-0.946V1.837H107.885z"/>
				<path id="Shape_6_" fill="#FFFFFF" d="M134.938,1.648c0-0.426,0.331-0.757,0.757-0.757h4.776c0.426,0,0.757,0.378,0.757,0.757
					v21.47h9.602c0.426,0,0.757,0.378,0.757,0.757v4.398c0,0.426-0.331,0.757-0.757,0.757h-15.135c-0.426,0-0.757-0.379-0.757-0.757
					V1.648L134.938,1.648z"/>
				<path id="Shape_7_" fill="#FFFFFF" d="M155.465,1.648c0-0.426,0.378-0.757,0.757-0.757h4.824c0.379,0,0.757,0.378,0.757,0.757
					v26.625c0,0.426-0.378,0.757-0.757,0.757h-4.824c-0.426,0-0.757-0.379-0.757-0.757V1.648L155.465,1.648z"/>
				<path id="Shape_8_" fill="#FFFFFF" d="M168.708,1.222c0-0.426,0.379-0.709,0.757-0.709h0.993l16.033,15.417h0.048V1.648
					c0-0.426,0.331-0.757,0.757-0.757h4.824c0.426,0,0.756,0.378,0.756,0.757v27.05c0,0.425-0.378,0.709-0.756,0.709h-0.615
					c-0.142,0-0.426-0.142-0.52-0.188l-15.893-15.938h-0.047v14.991c0,0.426-0.331,0.757-0.757,0.757h-4.776
					c-0.426,0-0.758-0.379-0.758-0.757L168.708,1.222L168.708,1.222z"/>
				<path id="Shape_9_" fill="#FFFFFF" d="M221.16,0.466c4.02,0,7,1.229,9.743,3.736c0.378,0.331,0.378,0.804,0.047,1.135
					L227.829,8.6c-0.284,0.284-0.71,0.284-0.993,0c-1.467-1.324-3.453-2.034-5.439-2.034c-4.54,0-7.898,3.783-7.898,8.276
					c0,4.445,3.358,8.182,7.898,8.182c1.892,0,3.926-0.662,5.392-1.939c0.284-0.236,0.804-0.236,1.041,0.047l3.121,3.358
					c0.284,0.284,0.236,0.804-0.047,1.088c-2.743,2.648-6.196,3.878-9.791,3.878c-8.04,0-14.52-6.385-14.52-14.424
					C206.64,6.944,213.119,0.466,221.16,0.466L221.16,0.466z"/>
				<path id="Shape_10_" fill="#FFFFFF" d="M248.024,0.466c8.04,0,14.473,6.479,14.473,14.518s-6.433,14.423-14.473,14.423
					s-14.426-6.384-14.426-14.423S239.984,0.466,248.024,0.466L248.024,0.466z M248.024,22.976c4.445,0,8.04-3.641,8.04-7.992
					c0-4.445-3.642-8.087-8.04-8.087s-7.993,3.642-7.993,8.087C240.031,19.382,243.626,22.976,248.024,22.976L248.024,22.976z"/>
				<path id="Shape_11_" fill="#FFFFFF" d="M266.943,1.648c0-0.426,0.378-0.757,0.757-0.757h4.966c0.426,0,0.757,0.378,0.757,0.757
					v16.268c0,2.837,2.081,5.06,4.966,5.06s5.014-2.27,5.014-5.06V1.648c0-0.426,0.331-0.757,0.757-0.757h4.966
					c0.426,0,0.757,0.378,0.757,0.757v16.599c0,6.1-5.155,11.16-11.493,11.16c-6.29,0-11.398-5.06-11.398-11.16V1.648H266.943z"/>
				<path id="Shape_12_" fill="#FFFFFF" d="M296.314,1.222c0-0.426,0.378-0.709,0.757-0.709h0.993l16.033,15.417h0.047V1.648
					c0-0.426,0.331-0.757,0.757-0.757h4.824c0.426,0,0.757,0.378,0.757,0.757v27.05c0,0.425-0.378,0.709-0.757,0.709h-0.662
					c-0.142,0-0.426-0.142-0.52-0.188l-15.845-15.938h-0.048v14.991c0,0.426-0.33,0.757-0.756,0.757h-4.777
					c-0.426,0-0.757-0.379-0.757-0.757L296.314,1.222L296.314,1.222z"/>
				<path id="Shape_13_" fill="#FFFFFF" d="M331.03,6.803h-5.771c-0.426,0-0.757-0.378-0.757-0.757V1.648
					c0-0.426,0.331-0.757,0.757-0.757h17.831c0.425,0,0.756,0.378,0.756,0.757v4.398c0,0.426-0.331,0.757-0.756,0.757h-5.771v21.47
					c0,0.426-0.379,0.757-0.757,0.757h-4.824c-0.379,0-0.757-0.379-0.757-0.757V6.803H331.03z"/>
				<path id="Shape_14_" fill="#FFFFFF" d="M354.489,15.457l-8.893-13.43c-0.331-0.521,0-1.183,0.662-1.183h5.25
					c0.331,0,0.521,0.189,0.662,0.378l5.534,8.276l5.581-8.229c0.142-0.142,0.283-0.378,0.662-0.378h5.25
					c0.662,0,0.945,0.662,0.662,1.182l-8.986,13.383v12.816c0,0.426-0.379,0.757-0.757,0.757h-4.777
					c-0.426,0-0.757-0.379-0.757-0.757V15.457H354.489z"/>
			</g>
		</g>
	</g>
</g>
</svg>
